common/svg/upgrade-icon.svg

<svg fill="none" height="20" viewBox="0 0 20 20" width="20" xmlns="http://www.w3.org/2000/svg"><g clip-rule="evenodd" fill="#000" fill-rule="evenodd"><path d="m.400025 2.32002c0-1.06038.859615-1.919996 1.920005-1.919996l15.35997.000001c1.0604 0 1.92.859615 1.92 1.919995v10.55998c0 1.0604-.8596 1.92-1.92 1.92h-6.834v-7.51203l3.4908 3.49083c.3304.3303.866.3303 1.1963 0 .3304-.3304.3304-.86598 0-1.19638l-4.9346-4.93462c-.3303-.33036-.866-.33036-1.19632 0l-4.93465 4.93462c-.33036.3304-.33036.86598 0 1.19638.33036.3303.86598.3303 1.19634 0l3.49023-3.49027v7.51147h-6.83407c-1.06039 0-1.920006-.8596-1.920006-1.92z"/><path d="m10.8531 14.8v3.84c0 .5302-.3826.96-.85441.96-.47192 0-.8544-.4298-.8544-.96v-3.84z"/></g></svg>

<svg width="20" height="20" viewBox="0 0 20 20" fill="none" xmlns="http://www.w3.org/2000/svg">
<path fill-rule="evenodd" clip-rule="evenodd" d="M0.400025 2.32002C0.400025 1.25964 1.25964 0.400024 2.32003 0.400024L17.68 0.400025C18.7404 0.400025 19.6 1.25964 19.6 2.32002V12.88C19.6 13.9404 18.7404 14.8 17.68 14.8H10.846V7.28797L14.3368 10.7788C14.6672 11.1091 15.2028 11.1091 15.5331 10.7788C15.8635 10.4484 15.8635 9.91282 15.5331 9.58242L10.5985 4.6478C10.2682 4.31744 9.7325 4.31744 9.40218 4.6478L4.46753 9.58242C4.13717 9.91282 4.13717 10.4484 4.46753 10.7788C4.79789 11.1091 5.33351 11.1091 5.66387 10.7788L9.1541 7.28853V14.8H2.32003C1.25964 14.8 0.400024 13.9404 0.400024 12.88L0.400025 2.32002Z" fill="black"/>
<path fill-rule="evenodd" clip-rule="evenodd" d="M10.8531 14.8V18.64C10.8531 19.1702 10.4705 19.6 9.99869 19.6C9.52677 19.6 9.14429 19.1702 9.14429 18.64V14.8H10.8531Z" fill="black"/>
</svg>
